!!!!SEGMENT: pl-gd--ee-1638--007-021_marenzio-luca--il-terzo-libro-de-madrigalia-a-sei-voci-o-quante-volte.krn
!!!cenid: 15xx:862
!!!COM: Marenzio, Luca
!!!COM-rismID: pe30003955
!!!CDT: ~1553-1599/08/22
!!!CNT: Italian
!!!GTL: Il Terzo Libro de madrigalia a sei voci
!!!OTL: O quante volte
!!!OMV: 021
!!!PDT: 1585
!!!AGN:
!!!YEC: Copyright 2022 Narodowy Instytut Fryderyka Chopina (https://polishscores.org)
!!!YEM: License CC-BY-4.0 (https://creativecommons.org/licenses/by/4.0)
!!!SMS-siglum: PL-GD
!!!SMS-shelfmark: Ee 1638
!!!SMS-variant:
!!!SMS-altvar:
!!!SMS-shelfwork: 007-021 G
!!!NIFC-rismSourceID: 1001202747
!!!NIFC-rismChildID: 990039250
!!!NIFC-islandoraID: pl-gd:57883
!!!URL-pdf-islandora: https://repozytorium.nifc.pl/islandora/object/pl-gd%3A57883/datastream/PDF/view
!!!URL-scan: https://polish.musicsources.pl/pl/lokalizacje/galeria/klocki-introligatorskie/655 @EN{Scan on Polish Music Sources Website} @PL{Skany w portalu Dziedzictwo Muzyki Polskiej w otwartym dostępie}
!!!IIIF: https://repozytorium.nifc.pl/islandora/object/pl-gd%3A57883/datastream/IIIF/view
!!!ONB-nifc: UWAGA: zbiór na stronach: Canto: s. 694-704, Alto: s. 542-552, Tenore: s. 390-400, Basso: s. 237-248, Quinto: s. 85-96, Sesto: s. 3-14. Uwaga: utwory podzielone wg tytułów w spisach treści dostępnych na końcu każdej księgi głosowej.
!!!AIN: 2 alto 1 bass 1 soprn 2 tenor
!!!key: G:mix
**kern	**text	**kern	**text	**kern	**text	**kern	**text	**kern	**text	**kern	**text
*part6	*	*part5	*	*part4	*	*part3	*	*part2	*	*part1	*
*staff6	*	*staff5	*	*staff4	*	*staff3	*	*staff2	*	*staff1	*
*I"BASSO	*	*I"TENORE	*	*I"SESTO	*	*I"QVINTO	*	*I"ALTO	*	*I"CANTO	*
*I'B.	*	*I'T.	*	*I'S.	*	*I'Q.	*	*I'A.	*	*I'C.	*
*Ibass	*	*Itenor	*	*Itenor	*	*Ialto	*	*Ialto	*	*Isoprn	*
*ICvox	*	*ICvox	*	*ICvox	*	*ICvox	*	*Cvox	*	*ICvox	*
*clefF3	*	*clefC3	*	*clefC3	*	*clefC2	*	*clefC2	*	*clefG2	*
*k[b-]	*	*k[b-]	*	*k[b-]	*	*k[b-]	*	*k[b-]	*	*k[b-]	*
*G:mix	*	*G:mix	*	*G:mix	*	*G:mix	*	*G:mix	*	*G:mix	*
*M2/1	*	*M2/1	*	*M2/1	*	*M2/1	*	*M2/1	*	*M2/1	*
=1-	=1-	=1-	=1-	=1-	=1-	=1-	=1-	=1-	=1-	=1-	=1-
*xywh-#248:4708,621,3333,767	*	*xywh-#400:4840,581,3290,746	*	*xywh-#14:4496,657,3296,769	*	*xywh-#96:4575,594,3344,783	*	*xywh-#552:4658,546,3338,801	*	*xywh-#704:4693,574,3330,759	*
1G	O	1d	O	1r	.	1b-	O	2g\	O	2r	.
.	.	.	.	.	.	.	.	4.g\	Quan-	1dd	O
.	.	.	.	.	.	.	.	8a\	-te	.	.
4.G\	Quan-	4.B-/	Quan-	1d	O	4g\	Quan-	1b-	vol-	.	.
.	.	.	.	.	.	4g\	-te	.	.	.	.
8A\	-te	8c/	-te	.	.	.	.	.	.	.	.
2B-\	vol-	2d\	vol-	.	.	2f\	vol-	.	.	4.b-\	Quan-
.	.	.	.	.	.	.	.	.	.	8cc\	-te
=2-	=2-	=2-	=2-	=2-	=2-	=2-	=2-	=2-	=2-	=2-	=2-
1BB-	-te	2d\	-te	4.B-/	Quan-	1f	-te	4b-\	-te	2dd\	vol-
.	.	.	.	.	.	.	.	4f\	/o	.	.
.	.	.	.	8c/	-te	.	.	.	.	.	.
.	.	2f\	/O	1d	vol-	.	.	4b-\	Quan-	2dd\	-te
.	.	.	.	.	.	.	.	4b-\	-te	.	.
2B-\	O	4.d\	Quan-	.	.	4r	.	2.f\	vol-	2ff\	o
.	.	.	.	.	.	4b-\	O	.	.	.	.
.	.	8e\	-te	.	.	.	.	.	.	.	.
4.B-\	quan-	2f\	vol-	2d\	-te	4b-\	quan-	.	.	4.dd\	quan-
.	.	.	.	.	.	4b-\	-re	4d/	-te/	.	.
8c\	-te	.	.	.	.	.	.	.	.	8ee\	-te
=3-	=3-	=3-	=3-	=3-	=3-	=3-	=3-	=3-	=3-	=3-	=3-
2d\	volt'-	2f\	-te/	4r	.	2a\	volt'-	2r	.	2ff\	volt'-
.	.	.	.	2a\	in	.	.	.	.	.	.
4A\	-in	2r	.	.	.	4cc\	-in	4r	.	4ee\	-in
2B-\	uan	.	.	2d\	uan	2b-\	uan	4f\	in	2dd\	va(n)
.	.	2r	.	.	.	.	.	4g\	uan	.	.
4F\	cor	.	.	4f\	cor	4a\	cor	4a\	cor	4cc\	cor
!	!	!	!	!	!	!	!	!	!	!LO:SIC:v:t=custos ee	!
4G\	mio	4r	.	2d\	mio	4.g\	mio	4b-\	mio	2gg\	mio
!LO:SIC:v:t=custos A	!	!	!	!	!	!	!	!LO:SIC:v:t=custos a	!	!	!
4G\	ti	4d\	cor-	.	.	.	.	4b-\	ti	.	.
!	!	!	!	!	!	!LO:SIC:v:t=custos e	!	!	!	!	!
.	.	.	.	.	.	8f\	ti	.	.	.	.
=4-	=4-	=4-	=4-	=4-	=4-	=4-	=4-	=4-	=4-	=4-	=4-
!	!	!	!	!	!	!	!	!	!	!LO:LB:g=original	!
!	!	!	!	!	!	!	!	!LO:LB:g=original	!	!	!
!	!	!	!	!	!	!LO:LB:g=original	!	!	!	!	!
!LO:LB:g=original	!	!	!	!	!	!	!	!	!	!	!
*xywh-#248:4734,1250,3289,663	*	*	*	*	*	*xywh-#96:4610,1273,3291,644	*	*xywh-#552:4686,1223,3283,663	*	*xywh-#704:4673,1228,3343,654	*
0A	chia-	2c#X/	-mio	4r	.	1e	chia-	1.a	chia-	4r	.
.	.	.	.	4e\	cor	.	.	.	.	4ee\	cor
.	.	4r	.	2c#X/	mio	.	.	.	.	2.aa\	mio
!	!	!LO:SIC:v:t=custos c#	!	!	!	!	!	!	!	!	!
.	.	4e\	cor	.	.	.	.	.	.	.	.
!	!	!LO:LB:g=original	!	!	!	!	!	!	!	!	!
*	*	*xywh-#400:4806,1286,3310,566	*	*	*	*	*	*	*	*	*
.	.	4c#X\	mio	4e\	ti	4A/	-mo	.	.	.	.
.	.	4d\	ti	2d\	chia-	4a\	ti	.	.	4ff\	ti
.	.	2e\	chia-	.	.	2a\	chia-	2A/	-mo	2ee\	chia-
!	!	!	!	!LO:SIC:v:t=custos d	!	!	!	!	!	!	!
.	.	.	.	4c#X/	.	.	.	.	.	.	.
=5-	=5-	=5-	=5-	=5-	=5-	=5-	=5-	=5-	=5-	=5-	=5-
!	!	!	!	!LO:LB:g=original	!	!	!	!	!	!	!
*	*	*	*	*xywh-#14:4505,1357,3287,603	*	*	*	*	*	*	*
1D	-mo	1f#X	-mo	1d	-mo	1a	-mo	1r	.	1dd	-mo
1r	.	1r	.	1r	.	4f#X\	va-	4d/	Va-	4a/	Va-
.	.	.	.	.	.	8f#\	-ga	8d/	-ga	8a/	-ga
.	.	.	.	.	.	8g\	di	8g\	di	8b-/	di
.	.	.	.	.	.	4a\	ri-	4f\	ri-	4cc\	ri-
.	.	.	.	.	.	4b-\	-ue-	4B-/	-ue-	4dd\	-ue-
=6-	=6-	=6-	=6-	=6-	=6-	=6-	=6-	=6-	=6-	=6-	=6-
0r	.	0r	.	4r	.	2a\	-der	4f\	-der	2cc\	-der
.	.	.	.	4f\	gl'ar-	.	.	4a\	gl'ar-	.	.
.	.	.	.	4e\	-den-	4r	.	4g\	-den-	4r	.
.	.	.	.	4d\	-ti	4a\	gl'ar-	4f\	-ti	4dd\	gl'ar-
*	*	*	*	*lig	*	*	*	*	*	*	*
.	.	.	.	1c	lu-	2.cc\	-den-	2g\	lu-	4ee\	-den-
.	.	.	.	.	.	.	.	.	.	4ff\	-ti
.	.	.	.	.	.	.	.	2e/	-mi	2.gg\	lu-
.	.	.	.	.	.	4b-\	-ti	.	.	.	.
=7-	=7-	=7-	=7-	=7-	=7-	=7-	=7-	=7-	=7-	=7-	=7-
1r	.	2r	.	1d	.	1a	lu-	1r	.	.	.
.	.	.	.	.	.	.	.	.	.	8ff\	.
.	.	.	.	.	.	.	.	.	.	8ee\	.
.	.	2d\	Ca-	.	.	.	.	.	.	2ff#X\	.
!	!	!	!	!	!	!	!	!	!	!LO:SIC:v:t=custos gg	!
*	*	*	*	*Xlig	*	*	*	*	*	*	*
2r	.	1d	-gio(n)	1G	-mi	1b-	-mi	2r	.	1gg	-mi
2G\	Ca-	.	.	.	.	.	.	2d/	Ca-	.	.
=8-	=8-	=8-	=8-	=8-	=8-	=8-	=8-	=8-	=8-	=8-	=8-
!	!	!	!	!	!	!	!	!	!	!LO:LB:g=original	!
*	*	*	*	*	*	*	*	*	*	*xywh-#704:4673,1783,3316,667	*
1.G	-gio(n)	2r	.	1B-	Ca-	2r	.	1.g	-gio(n)	2r	.
.	.	2B-/	/Ca-	.	.	2b-\	Ca-	.	.	2dd\	Ca-
.	.	0B-	-gio(n)/	1d	-gion	1.b-	-gio(n)	.	.	1.gg	-gion
2F/	ch'io	.	.	.	.	.	.	2a\	ch'io	.	.
=9-	=9-	=9-	=9-	=9-	=9-	=9-	=9-	=9-	=9-	=9-	=9-
1E-X	mi	.	.	1.G	ch'io-	.	.	1.b-	mi	.	.
!	!	!	!	!	!	!LO:SIC:v:t=custos g	!	!	!	!	!
.	.	.	.	.	.	2a\	ch'io	.	.	2ffny\	ch'io
!	!	!	!	!	!	!LO:LB:g=original	!	!	!	!	!
*	*	*	*	*	*	*xywh-#96:4583,1804,3318,661	*	*	*	*	*
1E-	con-	2r	.	.	.	2g\	mi	.	.	1.ee-X	mi
!	!	!	!	!	!	!	!	!LO:SIC:v:t=custos a	!	!	!
.	.	2G/	ch'io	1c\	-mi	2g\	con-	2cc\	con-	.	.
=10-	=10-	=10-	=10-	=10-	=10-	=10-	=10-	=10-	=10-	=10-	=10-
!	!	!	!	!	!	!	!	!LO:LB:g=original	!	!	!
*	*	*	*	*	*	*	*	*xywh-#552:4679,1776,3310,656	*	*	*
0F	-ſu-	2A/	mi	.	.	0fny	-ſu-	2a\	-ſu-	.	.
.	.	2d\	con-	2B-/	con-	.	.	2.b-\	.	2dd\	con-
.	.	4fny\	-ſu-	2c/	-ſu-	.	.	.	.	1cc	-ſu-
.	.	8e\	.	.	.	.	.	8a\	.	.	.
.	.	8d\	.	.	.	.	.	8g\	.	.	.
.	.	2cny/	.	2F/	-mi	.	.	2a\	.	.	.
=11-	=11-	=11-	=11-	=11-	=11-	=11-	=11-	=11-	=11-	=11-	=11-
4BB-/	-mi	4B-/	-mi	4r	.	2f\	-mi	2b-\	-mi	4dd\	-mi
4B-\	Si	4d\	ſi	4f\	Si	.	.	.	.	4b-/	ſi
4B-\	dol-	4d\	dol-	4f\	dol-	2r	.	2r	.	4b-/	dol-
!	!	!LO:SIC:v:t=custos c#	!	!	!	!	!	!	!	!	!
4G\	-ce-	4d\	-ce-	4g\	-ce-	.	.	.	.	4b-/	-ce-
!	!	!LO:LB:g=original	!	!	!	!	!	!	!	!	!
*	*	*xywh-#400:4792,1783,3310,663	*	*	*	*	*	*	*	*	*
2A\	-men-	2c#X/	-men-	2e\	-men-	2r	.	1r	.	2a/	-men-
!	!	!	!	!LO:SIC:v:t=custos f	!	!	!	!	!	!	!
4A\	-te	4c#/	-te	4e\	-te	4r	.	.	.	2a/	-te
!	!	!	!	!LO:LB:g=original	!	!	!	!	!	!	!
*	*	*	*	*xywh-#14:4488,1855,3296,638	*	*	*	*	*	*	*
2D/	che	2d\	che	2f\	che	2a\	che	.	.	.	.
=12-	=12-	=12-	=12-	=12-	=12-	=12-	=12-	=12-	=12-	=12-	=12-
.	.	.	.	.	.	.	.	0r	.	0r	.
4G\	mo-	4d\	mo-	4g\	mo-	4b-\	mo-	.	.	.	.
4F/	-rir	4f\	-rir	2a\	-rir	2.cc\	-rir	.	.	.	.
!LO:SIC:v:t=custos D	!	!	!	!	!	!	!	!	!	!	!
4C/	ne	4e\	ne	.	.	.	.	.	.	.	.
!LO:LB:g=original	!	!	!	!	!	!	!	!	!	!	!
*xywh-#248:4734,1825,3298,610	*	*	*	*	*	*	*	*	*	*	*
1D	bra-	1d	bra-	4f#X\	ne	.	.	.	.	.	.
.	.	.	.	2g\	bra-	4b-\	ne	.	.	.	.
.	.	.	.	.	.	2a\	bra-	.	.	.	.
.	.	.	.	4f#X\	.	.	.	.	.	.	.
=13-	=13-	=13-	=13-	=13-	=13-	=13-	=13-	=13-	=13-	=13-	=13-
2G\	-mo	4d\	-mo	2g\	-mo	4g\	-mo	4r	.	4r	.
.	.	2g\	O	.	.	2b-\	O	2dd\	O	2gg\	O
2r	.	.	.	2r	.	.	.	.	.	.	.
.	.	4d\	dolc'-	.	.	4a\	dol-	4dd\	dol-	4ff\	dol-
2r	.	2e-X\	-eſ-	2r	.	2g\	-c'eſ-	2b-\	-c'eſ-	2ee-X\	-c'eſ-
4r	.	2B-/	-ca	4r	.	2.f\	ca o	2.b-\	ca o	2dd\	-ca
2B-\	O	.	.	2d\	O	.	.	.	.	.	.
=14-	=14-	=14-	=14-	=14-	=14-	=14-	=14-	=14-	=14-	=14-	=14-
.	.	1r	.	.	.	.	.	.	.	1r	.
4F/	dolc'-	.	.	4c/	dolc'-	4f\	dol'c-	4a\	dol'c-	.	.
2G\	-ha-	.	.	2B-/	-ha-	2d/	-ha-	2g\	-ha-	.	.
2D/	-mo	4r	.	4A/	-mo	2d/	-mo	4f\	-mo	4r	.
.	.	2d\	O	2a\	O	.	.	2f\	O	2dd\	O
2r	.	.	.	.	.	2r	.	.	.	.	.
!	!	!	!	!	!	!	!	!	!	!LO:SIC:v:t=custos b-	!
.	.	4A/	dolc'-	4a\	dolc'-	.	.	4e/	dol-	4cc\	dol-
=15-	=15-	=15-	=15-	=15-	=15-	=15-	=15-	=15-	=15-	=15-	=15-
!	!	!	!	!	!	!	!	!	!	!LO:LB:g=original	!
*	*	*	*	*	*	*	*	*	*	*xywh-#704:4673,2358,3369,640	*
2r	.	2B-/	-eſ-	2fny\	-eſ-	2r	.	2d/	-c'eſ-	2b-/	-c'eſ-
4r	.	2F/	ca o	2.f\	ca o	4r	.	2c/	-ca	2a/	-ca
2F/	o	.	.	.	.	2a\	O	.	.	.	.
.	.	2cny/	dol-	.	.	.	.	1r	.	1r	.
!	!	!	!	!	!	!LO:SIC:v:t=custos f	!	!	!	!	!
4C/	dolc'-	.	.	4e\	dolc'-	4g\	dol-	.	.	.	.
!	!	!LO:SIC:v:t=custos A	!	!	!	!	!	!	!	!	!
!	!	!	!	!	!	!LO:LB:g=original	!	!	!	!	!
*	*	*	*	*	*	*xywh-#96:4610,2388,3318,627	*	*	*	*	*
2D/	-ha-	2A/	-c'ha-	2d\	-ha-	2f\	-c'ha-	.	.	.	.
=16-	=16-	=16-	=16-	=16-	=16-	=16-	=16-	=16-	=16-	=16-	=16-
!	!	!LO:LB:g=original	!	!	!	!	!	!	!	!	!
*	*	*xywh-#400:4792,2316,3366,670	*	*	*	*	*	*	*	*	*
4AA/	-mo	4A/	-mo	4c#X\	-mo	2e/	-mo	4r	.	4r	.
!	!	!	!	!LO:SIC:v:t=custos e	!	!	!	!LO:SIC:v:t=custos a	!	!	!
4A\	O	4c#X/	O	4e\	O	.	.	4a\	O	4eeny\	o
!	!	!	!	!LO:LB:g=original	!	!	!	!	!	!	!
!	!	!	!	!	!	!	!	!LO:LB:g=original	!	!	!
*	*	*	*	*xywh-#14:4470,2406,3287,647	*	*	*	*xywh-#552:4707,2281,3290,718	*	*	*
4.A\	dol-	4.c#/	dol-	4.e\	dol-	2r	.	4.a\	dol-	4.ee\	dol-
8A\	-ce	8c#/	-ce	8e\	-ce	.	.	8a\	-ce	8ee\	-ce
4A\	ſtral	4c#/	ſtral	4e\	ſtral	1r	.	4a\	ſtral	4ee\	ſtral
4D/	d'A-	4d\	d'A-	4d\	d'a-	.	.	4a\	d'A-	4ff\	d'A-
!LO:SIC:v:t=custos C	!	!	!	!	!	!	!	!	!	!	!
2C/	-mo-	2eny\	-mo-	2g\	-mo-	.	.	2cc\	-mo-	2gg\	-mo-
=17-	=17-	=17-	=17-	=17-	=17-	=17-	=17-	=17-	=17-	=17-	=17-
!LO:LB:g=original	!	!	!	!	!	!	!	!	!	!	!
*xywh-#248:4769,2349,3272,663	*	*	*	*	*	*	*	*	*	*	*
4C/	-re	2e\	-re	4g\	-re	4r	.	2cc\	-re	2ee\	-re
4c\	Che	.	.	4e\	Che	4g\	Che	.	.	.	.
4B-\	mi	2r	.	4d\	mi	4g\	mi	2r	.	2r	.
4A\	pia-	.	.	2f\	pia-	4a\	pia-	.	.	.	.
2G\	-gaſt'	2r	.	.	.	2b-\	-gaſt'	2r	.	2r	.
.	.	.	.	4e\	-gaſ-	.	.	.	.	.	.
2F/	in	4r	.	2f\	-te	2a\	in	4r	.	4r	.
.	.	4cny/	in	.	.	.	.	4f\	in	4cc\	in
=18-	=18-	=18-	=18-	=18-	=18-	=18-	=18-	=18-	=18-	=18-	=18-
4.F/	o-	4.c/	o-	0r	.	4.a\	o-	4.f\	o-	4.ff\	o-
8D/	-gni	8d\	-gni	.	.	8f\	-gni	8a\	-gni	8ff\	-gni
4G\	part'-	4G/	part'-	.	.	4b-\	part'-	4g\	part'-	4dd\	part'-
4C/	-il	4G/	-il	.	.	2g\	-il	4cc\	-il	4ee-X\	-il
1D	co-	1d	co-	.	.	.	.	1a	co-	1dd	co-
.	.	.	.	.	.	8f#X\	co-	.	.	.	.
.	.	.	.	.	.	8e\	.	.	.	.	.
.	.	.	.	.	.	2f#X\	.	.	.	.	.
=19-	=19-	=19-	=19-	=19-	=19-	=19-	=19-	=19-	=19-	=19-	=19-
2G\	-re	2d\	-re	4r	.	4g\	-re	4b-\	-re	4dd\	-re
.	.	.	.	2g\	O	2b-\	O	2dd\	O	2gg\	O
2r	.	2r	.	.	.	.	.	.	.	.	.
!	!	!	!	!	!	!	!	!	!	!LO:SIC:v:t=custos ee-	!
.	.	.	.	4d\	dol-	4a\	dol-	4dd\	dol-	4ff\	dol-
!	!	!	!	!	!	!	!	!	!	!LO:LB:g=original	!
*	*	*	*	*	*	*	*	*	*	*xywh-#704:4680,2913,3336,627	*
2r	.	2r	.	2e-X\	-c'eſ-	2g\	-c'eſ-	2b-\	-c'eſ-	2ee-X\	-c'eſ-
4r	.	4r	.	2B-/	-ca	2.fny\	ca o	2.b-\	ca o	2dd\	-ca
2B-\	O	2d\	O	.	.	.	.	.	.	.	.
=20-	=20-	=20-	=20-	=20-	=20-	=20-	=20-	=20-	=20-	=20-	=20-
.	.	.	.	1r	.	.	.	.	.	1r	.
!	!	!LO:SIC:v:t=custos B-	!	!	!	!LO:SIC:v:t=custos d	!	!LO:SIC:v:t=custos g	!	!	!
4F/	dolc'-	4c/	dol-	.	.	4f\	dol-	4a\	dol-	.	.
!	!	!	!	!	!	!	!	!LO:LB:g=original	!	!	!
!	!	!	!	!	!	!LO:LB:g=original	!	!	!	!	!
!	!	!LO:LB:g=original	!	!	!	!	!	!	!	!	!
!	!	!	!	!	!	!LO:LB:g=original	!	!	!	!	!
!	!	!	!	!	!	!	!	!LO:LB:g=original	!	!	!
*	*	*xywh-#400:4785,2875,3317,635	*	*	*	*xywh-#96:4627,2910,3274,644	*	*xywh-#552:4707,2834,3297,705	*	*	*
2G\	-ha-	2B-/	-c'ha-	.	.	2d/	-c'ha-	2g\	-c'ha-	.	.
2D/	-mo	4A/	-mo	4r	.	2d/	-mo	4f\	-mo	4r	.
.	.	2a\	O	2d\	o	.	.	2f\	O	2dd\	o
2r	.	.	.	.	.	2r	.	.	.	.	.
.	.	4a\	dolc'-	4A/	dolc'-	.	.	4e/	dol-	4cc\	dol-
=21-	=21-	=21-	=21-	=21-	=21-	=21-	=21-	=21-	=21-	=21-	=21-
!	!	!	!	!LO:SIC:v:t=custos F	!	!	!	!	!	!	!
2r	.	2f\	-eſ	2B-/	-e-	2r	.	2d/	-c'eſ-	2b-/	-c'eſ-
!	!	!	!	!LO:LB:g=original	!	!	!	!	!	!	!
*	*	*	*	*xywh-#14:4496,2931,3261,664	*	*	*	*	*	*	*
4r	.	2.f\	ca o	2F/	ſca o	4r	.	2c/	-ca	2a/	-ca
2F/	O	.	.	.	.	2a\	O	.	.	.	.
.	.	.	.	2cny/	dolc'-	.	.	1r	.	1r	.
4C/	dolc'-	4e\	doc'-	.	.	4g\	dolc'-	.	.	.	.
!LO:SIC:v:t=custos AA	!	!	!	!	!	!	!	!	!	!	!
2D/	-ha-	2d\	-ha-	2A/	-ha-	2f\	-ha-	.	.	.	.
=22-	=22-	=22-	=22-	=22-	=22-	=22-	=22-	=22-	=22-	=22-	=22-
!LO:LB:g=original	!	!	!	!	!	!	!	!	!	!	!
*xywh-#248:4726,2925,3307,619	*	*	*	*	*	*	*	*	*	*	*
4AA/	-mo	4c#X\	-mo	4A/	-mo	2e/	-mo	4r	.	4r	.
4A\	O	4e\	O	4c#X/	O	.	.	4a\	O	4eeny\	o
4.A\	dol-	4.e\	dol-	4.c#/	dol-	2r	.	4.a\	dol-	4.ee\	dol-
8A\	-ce	8e\	-ce	8c#/	-ce	.	.	8a\	-ce	8ee\	-ce
4A\	ſtral	4e\	ſtral	4c#/	ſtral	1r	.	4a\	ſtral	4ee\	ſtral
4D/	d'A-	4d\	d'A-	4d\	d'A-	.	.	4a\	d'A-	4ff\	d'A-
2C/	-mo-	2g\	-mo-	2eny\	-mo-	.	.	2cc\	-mo-	2gg\	-mo-
=23-	=23-	=23-	=23-	=23-	=23-	=23-	=23-	=23-	=23-	=23-	=23-
4C/	-re	4g\	-re	2e\	-re	4r	.	2cc\	-re	2ee\	-re
4c\	Che	4e\	Che	.	.	4g\	Che	.	.	.	.
4B-\	mi	4d\	mi	2r	.	4g\	mi	2r	.	2r	.
4A\	pia-	2f\	pia-	.	.	4a\	pia-	.	.	.	.
2G\	-ga-	.	.	2r	.	2b-\	-ga-	2r	.	2r	.
!	!	!LO:SIC:v:t=custos f	!	!	!	!	!	!	!	!	!
.	.	4e\	-ga-	.	.	.	.	.	.	.	.
!	!	!LO:LB:g=original	!	!	!	!	!	!	!	!	!
*	*	*xywh-#400:4812,3428,3359,691	*	*	*	*	*	*	*	*	*
2F/	-ſte	2f\	-ſti	4r	.	2a\	-ſte	4r	.	4r	.
.	.	.	.	4f\	Che	.	.	4a\	Che	4cc\	Che
=24-	=24-	=24-	=24-	=24-	=24-	=24-	=24-	=24-	=24-	=24-	=24-
0r	.	1r	.	4e-X\	mi	1r	.	4g\	mi	4cc\	mi
!	!	!	!	!	!	!	!	!	!	!LO:SIC:v:t=custos ee-	!
.	.	.	.	4d\	pia-	.	.	2b-\	pia-	4dd\	pia-
!	!	!	!	!	!	!	!	!	!	!LO:LB:g=original	!
*	*	*	*	*	*	*	*	*	*	*xywh-#704:4667,3422,3369,660	*
.	.	.	.	2c/	-gaſt'	.	.	.	.	2ee-X\	-gaſt'-
!	!	!	!	!	!	!	!	!LO:SIC:v:t=custos b-	!	!	!
.	.	.	.	.	.	.	.	4a\	-ga-	.	.
!	!	!	!	!	!	!	!	!LO:LB:g=original	!	!	!
*	*	*	*	*	*	*	*	*xywh-#552:4741,3387,3248,711	*	*	*
.	.	4r	.	2B-/	in	4r	.	2b-\	-ſti	2dd\	-in
.	.	4d\	in	.	.	4f\	in	.	.	.	.
.	.	4.f\	o-	4.B-/	o-	4.b-\	o-	2r	.	4.dd\	o-
!	!	!	!	!LO:SIC:v:t=custos c	!	!	!	!	!	!	!
.	.	8g\	-gni	8G/	-gni	8b-\	-gni	.	.	8dd\	-gni
=25-	=25-	=25-	=25-	=25-	=25-	=25-	=25-	=25-	=25-	=25-	=25-
!	!	!	!	!LO:LB:g=original	!	!	!	!	!	!	!
*	*	*	*	*xywh-#14:4488,3499,3279,655	*	*	*	*	*	*	*
1r	.	4e\	part'-	4c/	part'-	4g\	part'-	1r	.	4cc\	part'-
!	!	!	!	!	!	!LO:SIC:v:t=custos g	!	!	!	!	!
.	.	4f\	-il	4F/	-il	4a\	-il	.	.	4cc\	-il
!	!	!	!	!	!	!	!	!	!	!LO:N:acc=#	!
!	!	!	!	!	!	!LO:LB:g=original	!	!	!	!	!
*	*	*	*	*	*	*xywh-#96:4618,3416,3309,731	*	*	*	*	*
.	.	2d\	co-	2G/	co-	2g\	co-	.	.	2bn/	co-
4r	.	4e\	-re.	2c/	-re	2g\	-re	4r	.	2cc\	-re
4c\	Che	4e\	Che	.	.	.	.	4g\	Che	.	.
4B-\	mi	4d\	mi	2r	.	2r	.	4g\	mi	2r	.
4A\	pia-	2f\	pia-	.	.	.	.	4a\	pia-	.	.
=26-	=26-	=26-	=26-	=26-	=26-	=26-	=26-	=26-	=26-	=26-	=26-
2G\	-gaſt'-	.	.	2r	.	2r	.	2b-\	-gaſt'-	2r	.
.	.	4e\	-gaſt'-	.	.	.	.	.	.	.	.
!LO:SIC:v:t=custos F	!	!	!	!	!	!	!	!	!	!	!
2F/	-in	2f\	-in	4r	.	4r	.	2a\	-in	4r	.
.	.	.	.	4c/	in	4f\	in	.	.	4cc\	in
!LO:LB:g=original	!	!	!	!	!	!	!	!	!	!	!
*xywh-#248:4717,3457,3298,689	*	*	*	*	*	*	*	*	*	*	*
4.F/	o-	4.cny/	o-	4.A/	o-	4.f\	o-	4.a\	o-	4.ff\	o-
8D/	-gni	8d\	-gni	8d\	-gni	8a\	-gni	8f\	-gni	8ff\	-gni
4G\	part'-	4d\	par-	4G/	part'	4g\	part'-	4b-\	part'-	4dd\	part'-
4C/	-il	4c/	-te	4G/	il	4cc\	-il	2g\	-il	4ee-X\	-il
=27-	=27-	=27-	=27-	=27-	=27-	=27-	=27-	=27-	=27-	=27-	=27-
1D	co-	4r	.	1d	co-	1a	co-	.	.	1dd	co-
.	.	4d\	il	.	.	.	.	8f#X\	co-	.	.
.	.	.	.	.	.	.	.	8e\	.	.	.
.	.	2A/	co-	.	.	.	.	2f#X\	.	.	.
!	!	!	!	!	!	!LO:N:acc=#	!	!	!	!	!
0.G	-re.	0.G	-re.	0.d	-re.	0.bn	-re.	0.g	-re.	0.dd	-re.
=28-	=28-	=28-	=28-	=28-	=28-	=28-	=28-	=28-	=28-	=28-	=28-
.	.	.	.	.	.	.	.	.	.	.	.
=-	=-	=-	=-	=-	=-	=-	=-	=-	=-	=-	=-
*-	*-	*-	*-	*-	*-	*-	*-	*-	*-	*-	*-
!!!system-decoration: [(s1,s2,s3,s4,s5,s6)]
!!!ENC: Mateusz Solarz
!!!END: 2022-06-13
!!!ENC: Urszula Świątek
!!!END: 2022-07-23
!!!ENC-iiif: Jolanta Bujas-Poniatowska
!!!END-iiif: 2022-09-27
